X:5713
T:Gan ainm
R:Reel
S:(Unknown fiddle)
H:
N:
D:Unknown - Milltown Fiddle Recital
Z:Adrian Scahill
M:4/4
L:1/8
K:G
dBcA G3B|dBcA =FGAc|dBcA G2eg|fd (3ddd fdcA:||\
dgg2 dgag|fgag fdcA|dgg2 dgag|fdcA =FGAc|\
dgg2 dgg2|dgag fdfa|(3bag af gbag|fdcA =FGAc||
